X:1
T:Varaždin, 65.65
T:Varaždin, 65.65
T:Frances Ridley Havergal (1836-1879)
T:Public Domain Courtesy of the Cyber Hymnal™
C:Frances Ridley Havergal (1836-1879)
Z:Public Domain
Z:Courtesy of the Cyber Hymnal™
%%score ( 1 2 ) 3
L:1/8
Q:1/4=110
M:2/2
K:G
V:1 treble 
V:2 treble 
V:3 bass 
V:1
 [Bd]2 [Ac]2 [GB]2 [FA]2 | [FB]4 [EG]4 | E2 [CF]2 [EG]2 [EA]2 | [FB]8 | [GB]2 [FA]2 [EG]2 [^DF]2 | %5
 [EG]4 [^A,E]4 | [B,D]2 [B,E]2 [CF]2 [CA]2 | [B,G]8 |] %8
V:2
 x8 | x8 | E2 x6 | x8 | x8 | x8 | x8 | x8 |] %8
V:3
 [G,D]2 [F,D]2 [G,D]2 [D,C]2 | [B,,D]4 [E,B,]4 | [C,C]2 [A,,C]2 [E,B,]2 [C,E]2 | [B,,^D]8 | %4
 [G,,D]2 [D,C]2 [E,B,]2 [B,,A,]2 | [E,G,]4 [^C,G,]4 | [D,G,]2 [D,G,]2 [D,A,]2 [D,F,]2 | [G,,G,]8 |] %8

